optimized/outline/terminal.svg

<svg xmlns="http://www.w3.org/2000/svg" fill="none" viewBox="0 0 24 24" stroke-width="2" stroke="currentColor" aria-hidden="true">
  <path stroke-linecap="round" stroke-linejoin="round" d="M8 9L11 12L8 15M13 15H16M5 20H19C20.1046 20 21 19.1046 21 18V6C21 4.89543 20.1046 4 19 4H5C3.89543 4 3 4.89543 3 6V18C3 19.1046 3.89543 20 5 20Z"/>
</svg>

<svg xmlns="http://www.w3.org/2000/svg" fill="none" viewBox="0 0 24 24" stroke-width="2" stroke="currentColor" aria-hidden="true">
  <path stroke-linecap="round" stroke-linejoin="round" d="M8 9l3 3-3 3m5 0h3M5 20h14a2 2 0 002-2V6a2 2 0 00-2-2H5a2 2 0 00-2 2v12a2 2 0 002 2z"/>
</svg>
